STiTCH/icons/inactive_connections.svg

<?xml version="1.0" encoding="UTF-8" standalone="no"?>
<!-- Created with Inkscape (http://www.inkscape.org/) -->

<svg
   xmlns:dc="http://purl.org/dc/elements/1.1/"
   xmlns:cc="http://creativecommons.org/ns#"
   xmlns:rdf="http://www.w3.org/1999/02/22-rdf-syntax-ns#"
   xmlns:svg="http://www.w3.org/2000/svg"
   xmlns="http://www.w3.org/2000/svg"
   xmlns:xlink="http://www.w3.org/1999/xlink"
   xmlns:sodipodi="http://sodipodi.sourceforge.net/DTD/sodipodi-0.dtd"
   xmlns:inkscape="http://www.inkscape.org/namespaces/inkscape"
   width="414.67957"
   height="413.19669"
   id="svg2"
   sodipodi:version="0.32"
   inkscape:version="0.48.1 "
   sodipodi:docname="inactive_connections.svg"
   inkscape:output_extension="org.inkscape.output.svg.inkscape"
   version="1.0">
  <defs
     id="defs4">
    <linearGradient
       id="linearGradient8117">
      <stop
         style="stop-color:#60ff00;stop-opacity:1;"
         offset="0"
         id="stop8119" />
      <stop
         id="stop8125"
         offset="0.5"
         style="stop-color:#60ff00;stop-opacity:1;" />
      <stop
         style="stop-color:#c4ffa1;stop-opacity:1;"
         offset="1"
         id="stop8121" />
    </linearGradient>
    <linearGradient
       id="linearGradient8107">
      <stop
         style="stop-color:#808080;stop-opacity:1;"
         offset="0"
         id="stop8109" />
      <stop
         id="stop8115"
         offset="0.5"
         style="stop-color:#808080;stop-opacity:1;" />
      <stop
         style="stop-color:#ffffff;stop-opacity:1;"
         offset="1"
         id="stop8111" />
    </linearGradient>
    <linearGradient
       id="linearGradient8097">
      <stop
         style="stop-color:#808080;stop-opacity:1;"
         offset="0"
         id="stop8099" />
      <stop
         id="stop8105"
         offset="0.5"
         style="stop-color:#808080;stop-opacity:1;" />
      <stop
         style="stop-color:#ffffff;stop-opacity:1;"
         offset="1"
         id="stop8101" />
    </linearGradient>
    <linearGradient
       id="linearGradient8087">
      <stop
         style="stop-color:#808080;stop-opacity:1;"
         offset="0"
         id="stop8089" />
      <stop
         id="stop8095"
         offset="0.5"
         style="stop-color:#808080;stop-opacity:1;" />
      <stop
         style="stop-color:#ffffff;stop-opacity:1;"
         offset="1"
         id="stop8091" />
    </linearGradient>
    <linearGradient
       id="linearGradient8077">
      <stop
         style="stop-color:#808080;stop-opacity:1;"
         offset="0"
         id="stop8079" />
      <stop
         id="stop8085"
         offset="0.5"
         style="stop-color:#808080;stop-opacity:1;" />
      <stop
         style="stop-color:#ffffff;stop-opacity:0;"
         offset="1"
         id="stop8081" />
    </linearGradient>
    <inkscape:perspective
       id="perspective3283"
       inkscape:persp3d-origin="361.79831 : 320.04952 : 1"
       inkscape:vp_z="-10.248931 : 495.44322 : 1"
       inkscape:vp_y="-6.1230318e-14 : 1000 : 0"
       inkscape:vp_x="733.84555 : 495.44322 : 1"
       sodipodi:type="inkscape:persp3d" />
    <inkscape:perspective
       sodipodi:type="inkscape:persp3d"
       inkscape:vp_x="39.655172 : 498.59488 : 1"
       inkscape:vp_y="6.1230318e-14 : 1000 : 0"
       inkscape:vp_z="783.74965 : 498.59488 : 1"
       inkscape:persp3d-origin="411.70241 : 323.20118 : 1"
       id="perspective10" />
    <linearGradient
       inkscape:collect="always"
       xlink:href="#linearGradient8077"
       id="linearGradient8083"
       x1="6.7195563"
       y1="722.93958"
       x2="58.459545"
       y2="672.63422"
       gradientUnits="userSpaceOnUse" />
    <linearGradient
       inkscape:collect="always"
       xlink:href="#linearGradient8087"
       id="linearGradient8093"
       x1="4.839952e-006"
       y1="792.71332"
       x2="129.93544"
       y2="662.59015"
       gradientUnits="userSpaceOnUse" />
    <linearGradient
       inkscape:collect="always"
       xlink:href="#linearGradient8097"
       id="linearGradient8103"
       x1="328.91364"
       y1="1045.1826"
       x2="379.3121"
       y2="994.20654"
       gradientUnits="userSpaceOnUse" />
    <linearGradient
       inkscape:collect="always"
       xlink:href="#linearGradient8107"
       id="linearGradient8113"
       x1="260.42657"
       y1="1052.7914"
       x2="390.63788"
       y2="921.32678"
       gradientUnits="userSpaceOnUse" />
    <radialGradient
       inkscape:collect="always"
       xlink:href="#linearGradient8117"
       id="radialGradient8123"
       cx="387.06897"
       cy="486.84494"
       fx="387.06897"
       fy="486.84494"
       r="185.39767"
       gradientTransform="matrix(1,0,0,0.98605054,0,6.7912229)"
       gradientUnits="userSpaceOnUse" />
  </defs>
  <sodipodi:namedview
     id="base"
     pagecolor="#ffffff"
     bordercolor="#666666"
     borderopacity="1.0"
     gridtolerance="10000"
     guidetolerance="10"
     objecttolerance="10"
     inkscape:pageopacity="0.0"
     inkscape:pageshadow="2"
     inkscape:zoom="1.4908955"
     inkscape:cx="158.18535"
     inkscape:cy="162.18203"
     inkscape:document-units="px"
     inkscape:current-layer="layer1"
     showgrid="false"
     inkscape:window-width="1451"
     inkscape:window-height="1012"
     inkscape:window-x="92"
     inkscape:window-y="0"
     showguides="true"
     inkscape:window-maximized="0">
    <inkscape:grid
       type="xygrid"
       id="grid3305"
       visible="true"
       enabled="true" />
  </sodipodi:namedview>
  <metadata
     id="metadata7">
    <rdf:RDF>
      <cc:Work
         rdf:about="">
        <dc:format>image/svg+xml</dc:format>
        <dc:type
           rdf:resource="http://purl.org/dc/dcmitype/StillImage" />
      </cc:Work>
    </rdf:RDF>
  </metadata>
  <g
     inkscape:label="Layer 1"
     inkscape:groupmode="layer"
     id="layer1"
     transform="translate(-4.8031693e-6,-639.16549)">
    <g
       id="g8211">
      <path
         id="path3226"
         d="M 371.67939,998.77241 C 379.19575,1006.2888 376.76799,1020.9427 366.23216,1031.4785 C 355.69632,1042.0144 341.04239,1044.4421 333.52606,1036.9257 C 333.29117,1036.6909 333.06691,1036.4573 332.85142,1036.2088 L 370.96242,998.09778 C 371.2109,998.31327 371.4445,998.53752 371.67939,998.77241 z"
         style="fill:url(#linearGradient8103);fill-opacity:1.0;fill-rule:evenodd;stroke:#000000;stroke-width:7.87559319000000000;stroke-linecap:butt;stroke-linejoin:bevel;stroke-miterlimit:4;stroke-dasharray:none;stroke-opacity:1" />
      <path
         id="path2435"
         d="M 53.847116,680.89113 C 46.330761,673.37478 31.67685,675.80254 21.141013,686.33837 C 10.605176,696.87421 8.1773977,711.52814 15.693773,719.04448 C 15.928665,719.27937 16.162273,719.50362 16.410751,719.7191 L 54.52175,681.6081 C 54.306258,681.35963 54.082008,681.12602 53.847116,680.89113 z"
         style="fill:url(#linearGradient8083);fill-opacity:1.0;fill-rule:evenodd;stroke:#000000;stroke-width:7.87559319000000000;stroke-linecap:butt;stroke-linejoin:bevel;stroke-miterlimit:4;stroke-dasharray:none;stroke-opacity:1" />
      <path
         transform="matrix(0.6548679,0.6548679,-0.6775288,0.6775288,270.66944,276.0808)"
         d="m 567.24138,486.84494 c 0,98.07816 -80.66594,177.58621 -180.17241,177.58621 -99.50647,0 -180.17241,-79.50805 -180.17241,-177.58621 0,-98.07816 80.66594,-177.58621 180.17241,-177.58621 99.50647,0 180.17241,79.50805 180.17241,177.58621 z"
         sodipodi:ry="177.58621"
         sodipodi:rx="180.17241"
         sodipodi:cy="486.84494"
         sodipodi:cx="387.06897"
         id="path2393"
         style="fill:url(#radialGradient8123);fill-opacity:1;fill-rule:evenodd;stroke:#000000;stroke-width:10.45051192999999900;stroke-linecap:butt;stroke-linejoin:miter;stroke-miterlimit:4;stroke-dasharray:none;stroke-opacity:1"
         sodipodi:type="arc" />
      <path
         transform="matrix(0.6385968,0.6385968,-0.9257094,0.9257094,443.21596,272.30577)"
         d="m 325.29586,423.30941 c -2.16629,1.07421 -4.0964,-1.44499 -4.25011,-3.3578 -0.30674,-3.81701 3.5004,-6.43838 7.00229,-6.27483 5.36671,0.25065 8.84778,5.58398 8.29954,10.64678 -0.74804,6.90779 -7.67569,11.28112 -14.29127,10.32425 -8.4484,-1.22197 -13.72584,-9.77058 -12.34897,-17.93575 1.68452,-9.98954 11.8671,-16.17686 21.58024,-14.37368 11.53126,2.1407 18.63175,13.9646 16.3984,25.22472 -2.593,13.07342 -16.06273,21.08916 -28.86921,18.42312 -14.61593,-3.04274 -23.54832,-18.16131 -20.44783,-32.5137 3.4907,-16.15871 20.26021,-26.00874 36.15818,-22.47254 17.70171,3.9374 28.4701,22.35935 24.49726,39.80267 -1.22549,5.38072 -3.75497,10.43613 -7.30024,14.66297"
         sodipodi:t0="0.058259577"
         sodipodi:argument="-18.098627"
         sodipodi:radius="35.376354"
         sodipodi:revolution="3"
         sodipodi:expansion="1"
         sodipodi:cy="421.3277"
         sodipodi:cx="325.86206"
         id="path3165"
         style="fill:none;fill-rule:evenodd;stroke:#000000;stroke-width:7.24298525;stroke-linecap:round;stroke-linejoin:miter;stroke-miterlimit:4;stroke-dasharray:none;stroke-opacity:1"
         sodipodi:type="spiral" />
      <path
         transform="matrix(-0.6413594,-0.6413594,-0.880362,0.880362,762.41648,628.37055)"
         d="m 325.29586,423.30941 c -2.16629,1.07421 -4.0964,-1.44499 -4.25011,-3.3578 -0.30674,-3.81701 3.5004,-6.43838 7.00229,-6.27483 5.36671,0.25065 8.84778,5.58398 8.29954,10.64678 -0.74804,6.90779 -7.67569,11.28112 -14.29127,10.32425 -8.4484,-1.22197 -13.72584,-9.77058 -12.34897,-17.93575 1.68452,-9.98954 11.8671,-16.17686 21.58024,-14.37368 11.53126,2.1407 18.63175,13.9646 16.3984,25.22472 -2.593,13.07342 -16.06273,21.08916 -28.86921,18.42312 -14.61593,-3.04274 -23.54832,-18.16131 -20.44783,-32.5137 3.4907,-16.15871 20.26021,-26.00874 36.15818,-22.47254 17.70171,3.9374 28.4701,22.35935 24.49726,39.80267 -1.22549,5.38072 -3.75497,10.43613 -7.30024,14.66297"
         sodipodi:t0="0.058259577"
         sodipodi:argument="-18.098627"
         sodipodi:radius="35.376354"
         sodipodi:revolution="3"
         sodipodi:expansion="1"
         sodipodi:cy="421.3277"
         sodipodi:cx="325.86206"
         id="path3167"
         style="fill:none;fill-rule:evenodd;stroke:#000000;stroke-width:7.41117191;stroke-linecap:round;stroke-linejoin:miter;stroke-miterlimit:4;stroke-dasharray:none;stroke-opacity:1"
         sodipodi:type="spiral" />
      <path
         id="path3225"
         d="M 206.92588,960.81978 C 192.52528,862.31212 90.395941,858.3077 90.395941,858.3077"
         style="fill:none;fill-rule:evenodd;stroke:#000000;stroke-width:9.84449196;stroke-linecap:round;stroke-linejoin:miter;stroke-miterlimit:4;stroke-dasharray:none;stroke-opacity:1" />
      <path
         id="path2405"
         d="M 121.00077,677.96264 C 121.10007,677.86258 121.1996,677.76266 121.29935,677.66291 C 175.63677,623.3255 276.83043,636.31934 347.17808,706.66699 C 417.52571,777.01464 430.51955,878.20829 376.18215,932.5457 L 376.18213,932.54571 C 376.08239,932.64546 375.98247,932.74499 375.8824,932.84429"
         style="fill:none;fill-opacity:0;stroke:#000000;stroke-width:9.844;stroke-linecap:butt;stroke-linejoin:bevel;stroke-miterlimit:4;stroke-dasharray:none;stroke-opacity:1" />
      <path
         id="rect3299"
         d="M 114.49193,670.39479 C 99.103249,662.8934 77.703162,665.50716 57.334757,676.84063 L 14.629273,719.54611 C 3.0117129,740.42511 0.55746153,762.37702 8.767695,777.83805 L 20.084627,789.15498 L 126.66837,682.57123 L 114.49193,670.39479 z"
         style="fill:url(#linearGradient8093);fill-opacity:1.0;stroke:#000000;stroke-width:7.87559319000000000;stroke-linecap:round;stroke-linejoin:bevel;stroke-miterlimit:4;stroke-dasharray:none;stroke-opacity:1" />
      <path
         id="path2398"
         d="M 383.12455,937.87026 C 390.62593,953.25894 388.01217,974.65902 376.67871,995.02743 L 333.97323,1037.7329 C 313.09422,1049.3505 291.14232,1051.8047 275.68129,1043.5945 L 264.36436,1032.2776 L 370.94811,925.69382 L 383.12455,937.87026 z"
         style="fill:url(#linearGradient8113);fill-opacity:1.0;stroke:#000000;stroke-width:7.87559319000000000;stroke-linecap:round;stroke-linejoin:bevel;stroke-miterlimit:4;stroke-dasharray:none;stroke-opacity:1" />
    </g>
  </g>
</svg>

<?xml version="1.0" encoding="UTF-8" standalone="no"?>
<!-- Created with Inkscape (http://www.inkscape.org/) -->
<svg
   xmlns:dc="http://purl.org/dc/elements/1.1/"
   xmlns:cc="http://creativecommons.org/ns#"
   xmlns:rdf="http://www.w3.org/1999/02/22-rdf-syntax-ns#"
   xmlns:svg="http://www.w3.org/2000/svg"
   xmlns="http://www.w3.org/2000/svg"
   xmlns:sodipodi="http://sodipodi.sourceforge.net/DTD/sodipodi-0.dtd"
   xmlns:inkscape="http://www.inkscape.org/namespaces/inkscape"
   width="414.67957"
   height="413.19669"
   id="svg2"
   sodipodi:version="0.32"
   inkscape:version="0.46"
   sodipodi:docname="inactive_connections.svg"
   inkscape:output_extension="org.inkscape.output.svg.inkscape"
   version="1.0">
  <defs
     id="defs4">
    <inkscape:perspective
       id="perspective3283"
       inkscape:persp3d-origin="361.79831 : 320.04952 : 1"
       inkscape:vp_z="-10.248931 : 495.44322 : 1"
       inkscape:vp_y="-6.1230318e-14 : 1000 : 0"
       inkscape:vp_x="733.84555 : 495.44322 : 1"
       sodipodi:type="inkscape:persp3d" />
    <inkscape:perspective
       sodipodi:type="inkscape:persp3d"
       inkscape:vp_x="39.655172 : 498.59488 : 1"
       inkscape:vp_y="6.1230318e-14 : 1000 : 0"
       inkscape:vp_z="783.74965 : 498.59488 : 1"
       inkscape:persp3d-origin="411.70241 : 323.20118 : 1"
       id="perspective10" />
  </defs>
  <sodipodi:namedview
     id="base"
     pagecolor="#ffffff"
     bordercolor="#666666"
     borderopacity="1.0"
     gridtolerance="10000"
     guidetolerance="10"
     objecttolerance="10"
     inkscape:pageopacity="0.0"
     inkscape:pageshadow="2"
     inkscape:zoom="1.4908955"
     inkscape:cx="262.82045"
     inkscape:cy="175.54536"
     inkscape:document-units="px"
     inkscape:current-layer="layer1"
     showgrid="false"
     inkscape:window-width="1451"
     inkscape:window-height="1012"
     inkscape:window-x="266"
     inkscape:window-y="70"
     showguides="true">
    <inkscape:grid
       type="xygrid"
       id="grid3305"
       visible="true"
       enabled="true" />
  </sodipodi:namedview>
  <metadata
     id="metadata7">
    <rdf:RDF>
      <cc:Work
         rdf:about="">
        <dc:format>image/svg+xml</dc:format>
        <dc:type
           rdf:resource="http://purl.org/dc/dcmitype/StillImage" />
      </cc:Work>
    </rdf:RDF>
  </metadata>
  <g
     inkscape:label="Layer 1"
     inkscape:groupmode="layer"
     id="layer1"
     transform="translate(-4.8031693e-6,-639.16549)">
    <path
       style="fill:#808080;fill-opacity:1;fill-rule:evenodd;stroke:#000000;stroke-width:7.87559319;stroke-linecap:butt;stroke-linejoin:bevel;stroke-miterlimit:4;stroke-dasharray:none;stroke-opacity:1"
       d="M 371.67939,998.77241 C 379.19575,1006.2888 376.76799,1020.9427 366.23216,1031.4785 C 355.69632,1042.0144 341.04239,1044.4421 333.52606,1036.9257 C 333.29117,1036.6909 333.06691,1036.4573 332.85142,1036.2088 L 370.96242,998.09778 C 371.2109,998.31327 371.4445,998.53752 371.67939,998.77241 z"
       id="path3226" />
    <path
       style="fill:#808080;fill-opacity:1;fill-rule:evenodd;stroke:#000000;stroke-width:7.87559319;stroke-linecap:butt;stroke-linejoin:bevel;stroke-miterlimit:4;stroke-dasharray:none;stroke-opacity:1"
       d="M 53.847116,680.89113 C 46.330761,673.37478 31.67685,675.80254 21.141013,686.33837 C 10.605176,696.87421 8.1773977,711.52814 15.693773,719.04448 C 15.928665,719.27937 16.162273,719.50362 16.410751,719.7191 L 54.52175,681.6081 C 54.306258,681.35963 54.082008,681.12602 53.847116,680.89113 z"
       id="path2435" />
    <path
       sodipodi:type="arc"
       style="fill:#60ff00;fill-opacity:1;fill-rule:evenodd;stroke:#000000;stroke-width:10.45051192999999900;stroke-linecap:butt;stroke-linejoin:miter;stroke-miterlimit:4;stroke-dasharray:none;stroke-opacity:1"
       id="path2393"
       sodipodi:cx="387.06897"
       sodipodi:cy="486.84494"
       sodipodi:rx="180.17241"
       sodipodi:ry="177.58621"
       d="M 567.24138,486.84494 A 180.17241,177.58621 0 1 1 206.89656,486.84494 A 180.17241,177.58621 0 1 1 567.24138,486.84494 z"
       transform="matrix(0.6548679,0.6548679,-0.6775288,0.6775288,270.66944,276.0808)" />
    <path
       sodipodi:type="spiral"
       style="fill:none;fill-rule:evenodd;stroke:#000000;stroke-width:7.24298525;stroke-linecap:round;stroke-linejoin:miter;stroke-miterlimit:4;stroke-dasharray:none;stroke-opacity:1"
       id="path3165"
       sodipodi:cx="325.86206"
       sodipodi:cy="421.3277"
       sodipodi:expansion="1"
       sodipodi:revolution="3"
       sodipodi:radius="35.376354"
       sodipodi:argument="-18.098627"
       sodipodi:t0="0.058259577"
       d="M 325.29586,423.30941 C 323.12957,424.38362 321.19946,421.86442 321.04575,419.95161 C 320.73901,416.1346 324.54615,413.51323 328.04804,413.67678 C 333.41475,413.92743 336.89582,419.26076 336.34758,424.32356 C 335.59954,431.23135 328.67189,435.60468 322.05631,434.64781 C 313.60791,433.42584 308.33047,424.87723 309.70734,416.71206 C 311.39186,406.72252 321.57444,400.5352 331.28758,402.33838 C 342.81884,404.47908 349.91933,416.30298 347.68598,427.5631 C 345.09298,440.63652 331.62325,448.65226 318.81677,445.98622 C 304.20084,442.94348 295.26845,427.82491 298.36894,413.47252 C 301.85964,397.31381 318.62915,387.46378 334.52712,390.99998 C 352.22883,394.93738 362.99722,413.35933 359.02438,430.80265 C 357.79889,436.18337 355.26941,441.23878 351.72414,445.46562"
       transform="matrix(0.6385968,0.6385968,-0.9257094,0.9257094,443.21596,272.30577)" />
    <path
       sodipodi:type="spiral"
       style="fill:none;fill-rule:evenodd;stroke:#000000;stroke-width:7.41117191;stroke-linecap:round;stroke-linejoin:miter;stroke-miterlimit:4;stroke-dasharray:none;stroke-opacity:1"
       id="path3167"
       sodipodi:cx="325.86206"
       sodipodi:cy="421.3277"
       sodipodi:expansion="1"
       sodipodi:revolution="3"
       sodipodi:radius="35.376354"
       sodipodi:argument="-18.098627"
       sodipodi:t0="0.058259577"
       d="M 325.29586,423.30941 C 323.12957,424.38362 321.19946,421.86442 321.04575,419.95161 C 320.73901,416.1346 324.54615,413.51323 328.04804,413.67678 C 333.41475,413.92743 336.89582,419.26076 336.34758,424.32356 C 335.59954,431.23135 328.67189,435.60468 322.05631,434.64781 C 313.60791,433.42584 308.33047,424.87723 309.70734,416.71206 C 311.39186,406.72252 321.57444,400.5352 331.28758,402.33838 C 342.81884,404.47908 349.91933,416.30298 347.68598,427.5631 C 345.09298,440.63652 331.62325,448.65226 318.81677,445.98622 C 304.20084,442.94348 295.26845,427.82491 298.36894,413.47252 C 301.85964,397.31381 318.62915,387.46378 334.52712,390.99998 C 352.22883,394.93738 362.99722,413.35933 359.02438,430.80265 C 357.79889,436.18337 355.26941,441.23878 351.72414,445.46562"
       transform="matrix(-0.6413594,-0.6413594,-0.880362,0.880362,762.41648,628.37055)" />
    <path
       style="fill:none;fill-rule:evenodd;stroke:#000000;stroke-width:9.84449196;stroke-linecap:round;stroke-linejoin:miter;stroke-miterlimit:4;stroke-dasharray:none;stroke-opacity:1"
       d="M 206.92588,960.81978 C 192.52528,862.31212 90.395941,858.3077 90.395941,858.3077"
       id="path3225" />
    <path
       style="fill:#808080;fill-opacity:1;stroke:#000000;stroke-width:7.87559319;stroke-linecap:round;stroke-linejoin:bevel;stroke-miterlimit:4;stroke-dasharray:none;stroke-opacity:1"
       d="M 383.12455,937.87026 C 390.62593,953.25894 388.01217,974.65902 376.67871,995.02743 L 333.97323,1037.7329 C 313.09422,1049.3505 291.14232,1051.8047 275.68129,1043.5945 L 264.36436,1032.2776 L 370.94811,925.69382 L 383.12455,937.87026 z"
       id="path2398" />
    <path
       style="fill:none;fill-opacity:0;stroke:#000000;stroke-width:9.844;stroke-linecap:butt;stroke-linejoin:bevel;stroke-miterlimit:4;stroke-dasharray:none;stroke-opacity:1"
       d="M 121.00077,677.96264 C 121.10007,677.86258 121.1996,677.76266 121.29935,677.66291 C 175.63677,623.3255 276.83043,636.31934 347.17808,706.66699 C 417.52571,777.01464 430.51955,878.20829 376.18215,932.5457 L 376.18213,932.54571 C 376.08239,932.64546 375.98247,932.74499 375.8824,932.84429"
       id="path2405" />
    <path
       style="fill:#808080;fill-opacity:1;stroke:#000000;stroke-width:7.87559319;stroke-linecap:round;stroke-linejoin:bevel;stroke-miterlimit:4;stroke-dasharray:none;stroke-opacity:1"
       d="M 114.49193,670.39479 C 99.103249,662.8934 77.703162,665.50716 57.334757,676.84063 L 14.629273,719.54611 C 3.0117129,740.42511 0.55746153,762.37702 8.767695,777.83805 L 20.084627,789.15498 L 126.66837,682.57123 L 114.49193,670.39479 z"
       id="rect3299" />
  </g>
</svg>
